images/burger_menu.svg

<svg width="24" height="18" viewBox="0 0 24 18" fill="none" xmlns="http://www.w3.org/2000/svg">
<path d="M0 0H24V3H0V0ZM0 7.5H24V10.5H0V7.5ZM0 15H24V18H0V15Z" fill="white"/>
</svg>

<svg width="24" height="18" fill="none" xmlns="http://www.w3.org/2000/svg"><path d="M0 0h24v3H0V0Zm0 7.5h24v3H0v-3ZM0 15h24v3H0v-3Z" fill="#fff"/></svg>
